!!!!SEGMENT: pl-wtm--r-1723--001_stefani-jozef--noc-i-poranek-w-obozie-tempo-di-marcia.krn
!!!cenid: 18xx:2327
!!!COM: Stefani, Józef
!!!COM-rismID:
!!!CDT: 1800/04/16-1876/03/19
!!!CNT: Polish
!!!OPR: Noc i poranek w obozie
!!!OTL: Tempo di marcia
!!!OMV: 001
!!!PDT:
!!!AGN: Secular
!!!SMS-siglum: PL-Wtm
!!!SMS-shelfmark: R 1723
!!!SMS-shelfwork: 001-001 M
!!!SMS-variant:
!!!SMS-altvar:
!!!NIFC-rismSourceID: 1001128950
!!!NIFC-islandoraID: pl-wtm:28378
!!!URL-pdf-islandora: https://repozytorium.nifc.pl/islandora/object/pl-wtm%3A28378/datastream/PDF/view
!!!URL-scan: https://polish.musicsources.pl/pl/lokalizacje/galeria/rekopisy/6460 @EN{Scan on Polish Music Herritage in Open Access Website} @PL{Skany w portalu Dziedzictwo Muzyki Polskiej w otwartym dostępie}
!!!ONB-nifc: UWAGA: skany 0003-0005 (nast. cz. Adagio)
!!!OMD: Tempo di Marcia.
!!!AIN: 1 bdrum 1 cbass 1 cello 1 clars 1 cor 1 drumS 4 empty 1 fagot 1 flt 1 oboe 1 picco 1 timpa 1 trngl 2 tromp 1 viola
!!!key:
**kern	**dynam	**kern	**kern	**kern	**kern	**kern	**kern	**kern	**kern	**dynam	**kern	**dynam	**kern	**dynam	**kern	**dynam	**kern	**dynam	**kern	**kern	**dynam	**kern	**dynam	**kern	**kern	**kern	**dynam
*	*	*	*	*	*group2	*group2	*	*	*	*	*group1	*	*group1	*	*	*	*	*	*	*	*	*	*	*	*	*	*
*	*	*	*	*	*I""Violini	*I""Violini	*	*	*	*	*I""Tromboni	*	*I""Tromboni	*	*	*	*	*	*	*	*	*	*	*	*	*	*
*part19	*part19	*part18	*part17	*part16	*part15	*part14	*part13	*part12	*part11	*part11	*part10	*part10	*part9	*part9	*part8	*part8	*part7	*part7	*part6	*part5	*part5	*part4	*part4	*part3	*part2	*part1	*part1
*staff19	*	*staff18	*staff17	*staff16	*staff15	*staff14	*staff13	*staff12	*staff11	*	*staff10	*	*staff9	*	*staff8	*	*staff7	*	*staff6	*staff5	*	*staff4	*	*staff3	*staff2	*staff1	*
*IdrumS	*	*Icbass	*Icello	*Iviola	*Iempty	*Iempty	*Ibdrum	*Itrngl	*Itimpa	*	*Iempty	*	*Iempty	*	*Itromp	*	*Itromp	*	*Ifagot	*Icor	*	*Iclars	*	*Ioboe	*Ipicco	*Iflt	*
*I"P. Tambour	*	*I"C: Baſsi	*I"Violoncelli	*I"Viole	*	*	*I"G. Caſsa	*I"Triangolo	*I"in C. G. Timpani	*	*	*	*	*	*I"in C Trombe tutti	*	*I"solo Tromba in C	*	*I"Fagoto	*I"in C Corni	*	*I"in C Clarinetti	*	*I"Oboe	*I"F. Picolo	*I"Flauto	*
*stria1	*	*	*	*	*	*	*	*	*	*	*	*	*	*	*	*	*	*	*	*	*	*	*	*	*	*	*
*clefF4	*	*clefF4	*clefF4	*clefC3	*clefG2	*clefG2	*clefF4	*clefG2	*clefF4	*	*clefF4	*	*clefC4	*	*clefG2	*	*clefG2	*	*clefF4	*clefG2	*	*clefG2	*	*clefG2	*clefG2	*clefG2	*
*	*	*Trd0c0	*	*	*	*	*	*	*	*	*	*	*	*	*	*	*	*	*	*Trd0c0	*	*	*	*	*Trd0c0	*	*
*k[]	*	*k[]	*k[]	*k[]	*k[]	*k[]	*k[]	*k[]	*k[]	*	*k[]	*	*k[]	*	*k[]	*	*k[]	*	*k[]	*k[]	*	*k[]	*	*k[]	*k[]	*k[]	*
*C:	*	*C:	*C:	*C:	*C:	*C:	*C:	*C:	*C:	*	*C:	*	*C:	*	*C:	*	*C:	*	*C:	*C:	*	*C:	*	*C:	*C:	*C:	*
*M2/4	*	*M2/4	*M2/4	*M2/4	*M2/4	*M2/4	*M2/4	*M2/4	*M2/4	*	*M2/4	*	*M2/4	*	*M2/4	*	*M2/4	*	*M2/4	*M2/4	*	*M2/4	*	*M2/4	*M2/4	*M2/4	*
*all\right	*	*all\right	*all\right	*all\right	*all\right	*all\right	*all\right	*all\right	*all\right	*	*all\right	*	*all\right	*	*all\right	*	*all\right	*	*all\right	*all\right	*	*all\right	*	*all\right	*all\right	*all\right	*
*	*	*	*	*	*	*	*	*	*	*	*	*	*^	*	*^	*	*	*	*	*^	*	*^	*	*	*	*	*
!	!	!	!	!	!	!	!	!	!	!	!	!	!	!	!	!	!	!LO:DY:rj	!	!	!	!	!	!	!	!	!LO:DY:rj	!	!	!	!
8r	.	8r	8r	8r	8r	8r	8r	8r	8r	.	8r	.	8G/	8G\	.	8g/	8g\	f	8r	.	8r	8g/	8g\	.	8g/	8g\	f	8r	8g/	8gg\	f
*	*	*	*	*	*	*	*	*	*	*	*	*	*v	*v	*	*	*	*	*	*	*	*v	*v	*	*	*	*	*	*	*	*
*	*	*	*	*	*	*	*	*	*	*	*	*	*	*	*v	*v	*	*	*	*	*	*	*	*	*	*	*	*	*
=1	=1	=1	=1	=1	=1	=1	=1	=1	=1	=1	=1	=1	=1	=1	=1	=1	=1	=1	=1	=1	=1	=1	=1	=1	=1	=1	=1	=1
!	!LO:DY:rj	!	!	!	!	!	!	!	!	!	!	!LO:DY:rj	!	!	!	!	!	!	!	!	!	!	!	!	!	!	!	!
8Re/L	f	2r	2r	2r	2r	2r	4Ra/	8Ree\L	8C/L	.	8C/L	f	8c\L	.	8e/L 8cc	.	2r	.	8C/L	8e/L 8cc	.	8cc/L	8cc\L	.	8gg\L	8cc\L	8ccc\L	.
*tremolo	*	*	*	*	*	*	*	*	*	*	*	*	*	*	*	*	*	*	*	*	*	*	*	*	*	*	*	*
32Re/LL	.	.	.	.	.	.	.	16Ree\L	16C/L	.	16C/L	.	16c\L	.	16e/L 16cc	.	.	.	16C/L	16e/L 16cc	.	16cc/L	16cc\L	.	16gg\L	16cc\L	16ccc\L	.
32Re/	.	.	.	.	.	.	.	.	.	.	.	.	.	.	.	.	.	.	.	.	.	.	.	.	.	.	.	.
32Re/	.	.	.	.	.	.	.	16Ree\JJ	16C/JJ	.	16C/JJ	.	16c\JJ	.	16e/JJ 16cc	.	.	.	16C/JJ	16e/JJ 16cc	.	16cc/JJ	16cc\JJ	.	16gg\JJ	16cc\JJ	16ccc\JJ	.
32Re/JJJ	.	.	.	.	.	.	.	.	.	.	.	.	.	.	.	.	.	.	.	.	.	.	.	.	.	.	.	.
*Xtremolo	*	*	*	*	*	*	*	*	*	*	*	*	*	*	*	*	*	*	*	*	*	*	*	*	*	*	*	*
8Re/L	.	.	.	.	.	.	4r	8Ree\L	8C/L	.	8C/L	.	8c\L	.	8e/L 8cc	.	.	.	8C/L	8e/L 8cc	.	8cc/L	8cc\L	.	8gg\L	8cc\L	8ccc\L	.
8Re/J	.	.	.	.	.	.	.	8Ree\J	8GG/J	.	8GG/J	.	8B\J 8d	.	8g/J 8dd	.	.	.	8GG/J	8g/J 8dd	.	8dd/J	8dd\J	.	8gg\J	8dd\J	8bb\J	.
*	*	*	*	*	*	*	*	*	*	*	*	*	*	*	*	*	*	*	*	*	*	*v	*v	*	*	*	*	*
=2	=2	=2	=2	=2	=2	=2	=2	=2	=2	=2	=2	=2	=2	=2	=2	=2	=2	=2	=2	=2	=2	=2	=2	=2	=2	=2	=2
*	*	*	*	*	*	*	*	*tremolo	*tremolo	*	*	*	*	*	*	*	*	*	*	*	*	*	*	*	*	*	*
8Re/L	.	2r	2r	2r	2r	2r	4Ra/	16Ree\LL	16C/LL	.	4.C/	.	8.c\L 8.e	.	8.cc\L 8.ee	.	2r	.	4.C/	8.cc\L 8.ee	.	8.cc\L 8.ee	.	4.gg\	8.ee\L	8.ccc\L	.
.	.	.	.	.	.	.	.	16Ree\	16C/	.	.	.	.	.	.	.	.	.	.	.	.	.	.	.	.	.	.
*tremolo	*	*	*	*	*	*	*	*	*	*	*	*	*	*	*	*	*	*	*	*	*	*	*	*	*	*	*
32Re/LL	.	.	.	.	.	.	.	16Ree\	16C/	.	.	.	.	.	.	.	.	.	.	.	.	.	.	.	.	.	.
32Re/	.	.	.	.	.	.	.	.	.	.	.	.	.	.	.	.	.	.	.	.	.	.	.	.	.	.	.
32Re/	.	.	.	.	.	.	.	16Ree\JJ	16C/JJ	.	.	.	16d\Jk 16f	.	16dd\Jk 16ff	.	.	.	.	16dd\Jk 16ff	.	16dd\Jk 16ff	.	.	16ff\Jk	16ddd\Jk	.
32Re/JJJ	.	.	.	.	.	.	.	.	.	.	.	.	.	.	.	.	.	.	.	.	.	.	.	.	.	.	.
*Xtremolo	*	*	*	*	*	*	*	*Xtremolo	*Xtremolo	*	*	*	*	*	*	*	*	*	*	*	*	*	*	*	*	*	*
8Re/	.	.	.	.	.	.	4r	8Ree\	8C/	.	.	.	8e\ 8g	.	8ee\ 8gg	.	.	.	.	8ee\ 8gg	.	8ee\ 8gg	.	.	8gg\	8eee\	.
8r	.	.	.	.	.	.	.	8r	8r	.	8r	.	8r	.	(16ee\LL 16gg	.	.	.	8r	(16ee\LL 16gg	.	(16ee\LL 16gg	.	(16gg\LL	(16gg\LL	(16eee\LL	.
.	.	.	.	.	.	.	.	.	.	.	.	.	.	.	16dd\JJ) 16ff	.	.	.	.	16dd\JJ) 16ff	.	16dd\JJ) 16ff	.	16ff\JJ)	16ff\JJ)	16ddd\JJ)	.
=3	=3	=3	=3	=3	=3	=3	=3	=3	=3	=3	=3	=3	=3	=3	=3	=3	=3	=3	=3	=3	=3	=3	=3	=3	=3	=3	=3
2r	.	2r	2r	2r	2r	2r	2r	8Ree\	8C/	.	8C/	.	2r	.	8cc'\L 8ee	.	2r	.	8C/	8cc\L 8ee	.	8cc'\L 8ee	.	8ee'\L	8ee'\L	8ccc'\L	.
.	.	.	.	.	.	.	.	8r	8r	.	8r	.	.	.	(16dd\L 16ff	.	.	.	8r	16dd\L 16ff	.	(16dd\L 16ff	.	(16ff\L	(16ff\L	(16fff\L	.
.	.	.	.	.	.	.	.	.	.	.	.	.	.	.	16cc\JJ) 16ee	.	.	.	.	16cc\JJ 16ee	.	16cc\JJ) 16ee	.	16ee\JJ)	16ee\JJ)	16eee\JJ)	.
.	.	.	.	.	.	.	.	8Ree\	8GG/	.	8GG/	.	.	.	8g'\L 8dd	.	.	.	8GG/	8g\L 8dd	.	8g'\L 8dd	.	8dd'\L	8dd'\L	8gg'\L	.
.	.	.	.	.	.	.	.	8r	8r	.	8r	.	.	.	(16cc\L 16ee	.	.	.	8r	16cc\L 16ee	.	(16cc\L 16ee	.	(16ee\L	(16ee\L	(16ccc\L	.
.	.	.	.	.	.	.	.	.	.	.	.	.	.	.	16g\JJ) 16dd	.	.	.	.	16g\JJ 16dd	.	16g\JJ) 16dd	.	16dd\JJ)	16dd\JJ)	16gg\JJ)	.
!!LO:PB:g=original
=4	=4	=4	=4	=4	=4	=4	=4	=4	=4	=4	=4	=4	=4	=4	=4	=4	=4	=4	=4	=4	=4	=4	=4	=4	=4	=4	=4
8r	.	2r	2r	4r	4r	4r	4Ra/	8Ree\L	8C/L	.	8C\L	.	8r	.	8e/L 8cc	.	2r	.	8C\L	8e/L 8cc	.	8e/L 8cc	.	8cc\L	8cc\L	8ee\L	.
*tremolo	*	*	*	*	*	*	*	*	*	*	*	*	*	*	*	*	*	*	*	*	*	*	*	*	*	*	*
32Re/LLL	.	.	.	.	.	.	.	16Ree\L	16C/L	.	16C\L	.	16c\LL 16e	.	16cc/L 16ee	.	.	.	16C\L	16cc/L 16ee	.	16cc/L 16ee	.	16gg\L	16ee\L	16ccc\L	.
32Re/	.	.	.	.	.	.	.	.	.	.	.	.	.	.	.	.	.	.	.	.	.	.	.	.	.	.	.
32Re/	.	.	.	.	.	.	.	16Ree\JJ	16C/JJ	.	16E\JJ	.	16c\JJ 16e	.	16cc/JJ 16ee	.	.	.	16E\JJ	16cc/JJ 16ee	.	16cc/JJ 16ee	.	16gg\JJ	16ee\JJ	16ccc\JJ	.
32Re/	.	.	.	.	.	.	.	.	.	.	.	.	.	.	.	.	.	.	.	.	.	.	.	.	.	.	.
*Xtremolo	*	*	*	*	*	*	*	*	*	*	*	*	*	*	*	*	*	*	*	*	*	*	*	*	*	*	*
8Re/JJJ	.	.	.	8r	8r	8r	4r	8Ree\	8GG/	.	8G\	.	8B\ 8d	.	8g/ 8dd	.	.	.	8G\	8b/ 8dd	.	8b/ 8dd	.	8gg\	8dd\	8bb\	.
8r	.	.	.	[8g\	8g/	8g/	.	8r	8r	.	8r	.	8r	.	8r	.	.	.	8r	8r	.	8r	.	8r	8r	8r	.
=5	=5	=5	=5	=5	=5	=5	=5	=5	=5	=5	=5	=5	=5	=5	=5	=5	=5	=5	=5	=5	=5	=5	=5	=5	=5	=5	=5
2ryy	.	8C/L	8C/Lyy	8g\L]	8cc\L	8e/L 8cc	2r	2r	2r	.	2r	.	2r	.	2r	.	2r	.	2r	2r	.	2r	.	2r	2r	2r	.
.	.	16C/L	16C/Lyy	16g\L	16cc\L	16e/L 16cc	.	.	.	.	.	.	.	.	.	.	.	.	.	.	.	.	.	.	.	.	.
.	.	16C/JJ	16C/JJyy	16g\JJ	16cc\JJ	16e/JJ 16cc	.	.	.	.	.	.	.	.	.	.	.	.	.	.	.	.	.	.	.	.	.
.	.	8C/L	8C/Lyy	8g\L	8cc\L	8e/L 8cc	.	.	.	.	.	.	.	.	.	.	.	.	.	.	.	.	.	.	.	.	.
.	.	8GG/J	8GG/Jyy	8g\J	8b\J	8g/J 8dd	.	.	.	.	.	.	.	.	.	.	.	.	.	.	.	.	.	.	.	.	.
=6	=6	=6	=6	=6	=6	=6	=6	=6	=6	=6	=6	=6	=6	=6	=6	=6	=6	=6	=6	=6	=6	=6	=6	=6	=6	=6	=6
2ryy	.	4.C/	4.C/yy	8.c\L 8.e	8.cc\L	8.ee\L	2ryy	2ryy	2ryy	.	2ryy	.	2ryy	.	2ryy	.	2ryy	.	2ryy	2ryy	.	2ryy	.	2ryy	2ryy	2r	.
.	.	.	.	16d\Jk 16f	16dd\Jk	16ff\Jk	.	.	.	.	.	.	.	.	.	.	.	.	.	.	.	.	.	.	.	.	.
.	.	.	.	8e\ 8g	8ee\	8gg\	.	.	.	.	.	.	.	.	.	.	.	.	.	.	.	.	.	.	.	.	.
.	.	8r	8ryy	(16e\LL 16g	(16ee\LL	(16gg\LL	.	.	.	.	.	.	.	.	.	.	.	.	.	.	.	.	.	.	.	.	.
.	.	.	.	16d\JJ) 16f	16dd\JJ)	16ff\JJ)	.	.	.	.	.	.	.	.	.	.	.	.	.	.	.	.	.	.	.	.	.
=7	=7	=7	=7	=7	=7	=7	=7	=7	=7	=7	=7	=7	=7	=7	=7	=7	=7	=7	=7	=7	=7	=7	=7	=7	=7	=7	=7
2ryy	.	8C/	8C/yy	8c'\L 8e	8cc'\L	8ee'\L	2ryy	2ryy	2ryy	.	2ryy	.	2ryy	.	2ryy	.	2ryy	.	2ryy	2ryy	.	2ryy	.	2ryy	2ryy	2r	.
.	.	8r	8ryy	(16d\L 16f	(16dd\L	(16ff\L	.	.	.	.	.	.	.	.	.	.	.	.	.	.	.	.	.	.	.	.	.
.	.	.	.	16c\JJ) 16e	16cc\JJ)	16ee\JJ)	.	.	.	.	.	.	.	.	.	.	.	.	.	.	.	.	.	.	.	.	.
.	.	8GG/	8GG/yy	8G'/L 8d	8g'/L	8dd'\L	.	.	.	.	.	.	.	.	.	.	.	.	.	.	.	.	.	.	.	.	.
.	.	8r	8ryy	(16c/L 16e	(16cc/L	(16ee\L	.	.	.	.	.	.	.	.	.	.	.	.	.	.	.	.	.	.	.	.	.
.	.	.	.	16G/JJ) 16d	16g/JJ)	16dd\JJ)	.	.	.	.	.	.	.	.	.	.	.	.	.	.	.	.	.	.	.	.	.
=8	=8	=8	=8	=8	=8	=8	=8	=8	=8	=8	=8	=8	=8	=8	=8	=8	=8	=8	=8	=8	=8	=8	=8	=8	=8	=8	=8
*	*	*	*	*	*	*	*	*	*	*	*	*	*	*	*	*	*	*	*	*^	*	*	*	*	*	*	*
2ryy	.	8C\L	8C\Lyy	8E/L 8c	8e/L	8cc\L	2r	2r	2r	.	2r	.	2r	.	2r	.	2r	.	2r	4r	4ryy	.	2ryy	.	2ryy	2ryy	2r	.
.	.	16C\L	16C\Lyy	16G/L 16e	16cc/L	16g\L 16ee	.	.	.	.	.	.	.	.	.	.	.	.	.	.	.	.	.	.	.	.	.	.
.	.	16E\JJ	16E\JJyy	16G/JJ 16e	16cc/JJ	16g\JJ 16ee	.	.	.	.	.	.	.	.	.	.	.	.	.	.	.	.	.	.	.	.	.	.
.	.	8G\	8G\yy	8G/ 8d	8b/	8g\ 8dd	.	.	.	.	.	.	.	.	.	.	.	.	.	8r	8ryy	.	.	.	.	.	.	.
!	!	!	!	!	!	!	!	!	!	!	!	!	!	!	!	!	!	!	!	!	!	!LO:DY:rj	!	!	!	!	!	!
.	.	8r	8ryy	8r	8r	8r	.	.	.	.	.	.	.	.	.	.	.	.	.	8g/	8g\	p	.	.	.	.	.	.
*	*	*	*	*	*	*	*	*	*	*	*	*	*	*	*	*	*	*	*	*v	*v	*	*	*	*	*	*	*
!!LO:PB:g=original
=9	=9	=9	=9	=9	=9	=9	=9	=9	=9	=9	=9	=9	=9	=9	=9	=9	=9	=9	=9	=9	=9	=9	=9	=9	=9	=9	=9
!	!	!	!	!	!	!	!	!	!	!	!	!LO:DY:rj	!	!	!	!	!	!	!	!	!LO:DY:rj	!	!	!	!	!	!
2ryy	.	2r	2r	2r	2r	2r	2r	2r	2r	.	8C/L	p	2r	.	2r	.	2r	.	8c\L	8e/L 8cc	p	2r	.	2r	2r	2r	.
.	.	.	.	.	.	.	.	.	.	.	16C/L	.	.	.	.	.	.	.	16c\L	16e/L 16cc	.	.	.	.	.	.	.
.	.	.	.	.	.	.	.	.	.	.	16C/JJ	.	.	.	.	.	.	.	16c\JJ	16e/JJ 16cc	.	.	.	.	.	.	.
.	.	.	.	.	.	.	.	.	.	.	8C/L	.	.	.	.	.	.	.	8c\L	8e/L 8cc	.	.	.	.	.	.	.
.	.	.	.	.	.	.	.	.	.	.	8GG/J	.	.	.	.	.	.	.	8B\J	8g/J 8dd	.	.	.	.	.	.	.
=10	=10	=10	=10	=10	=10	=10	=10	=10	=10	=10	=10	=10	=10	=10	=10	=10	=10	=10	=10	=10	=10	=10	=10	=10	=10	=10	=10
2ryy	.	2ryy	2ryy	2ryy	2ryy	2ryy	2ryy	2ryy	2r	.	4.C/	.	2r	.	2r	.	2r	.	4.c\	8.cc\L 8.ee	.	2ryy	.	2ryy	2ryy	2ryy	.
.	.	.	.	.	.	.	.	.	.	.	.	.	.	.	.	.	.	.	.	16dd\Jk 16ff	.	.	.	.	.	.	.
.	.	.	.	.	.	.	.	.	.	.	.	.	.	.	.	.	.	.	.	8ee\ 8gg	.	.	.	.	.	.	.
.	.	.	.	.	.	.	.	.	.	.	8r	.	.	.	.	.	.	.	8r	8r	.	.	.	.	.	.	.
=11	=11	=11	=11	=11	=11	=11	=11	=11	=11	=11	=11	=11	=11	=11	=11	=11	=11	=11	=11	=11	=11	=11	=11	=11	=11	=11	=11
!	!	!	!	!	!	!	!	!	!	!	!	!	!	!	!	!	!	!	!	!LO:TX:a:t=ritardando	!LO:DY:rj	!	!	!	!	!	!
2ryy	.	2ryy	2ryy	2ryy	2ryy	2ryy	2ryy	2ryy	8C/	pp	2r	.	2r	.	2r	.	2r	.	2r	8ee\ 8gg	pp	2ryy	.	2ryy	2ryy	2ryy	.
.	.	.	.	.	.	.	.	.	8r	.	.	.	.	.	.	.	.	.	.	8r	.	.	.	.	.	.	.
.	.	.	.	.	.	.	.	.	8GG/	.	.	.	.	.	.	.	.	.	.	8g/ 8dd	.	.	.	.	.	.	.
.	.	.	.	.	.	.	.	.	8r	.	.	.	.	.	.	.	.	.	.	8r	.	.	.	.	.	.	.
=12	=12	=12	=12	=12	=12	=12	=12	=12	=12	=12	=12	=12	=12	=12	=12	=12	=12	=12	=12	=12	=12	=12	=12	=12	=12	=12	=12
!	!	!	!	!	!	!	!	!	!	!	!	!	!	!LO:DY:rj	!	!	!LO:TX:a:i:t=a tempo Imo	!LO:DY:rj	!	!	!	!	!	!	!	!	!
2ryy	.	2ryy	2ryy	2ryy	2ryy	2ryy	2ryy	2ryy	8C/	.	2r	.	8r	f	8r	.	8r	f	2r	8e/ 8cc	.	2ryy	.	2ryy	2ryy	2ryy	.
.	.	.	.	.	.	.	.	.	8r	.	.	.	16C/LL	.	16c/LL	.	16c/LL	.	.	8r	.	.	.	.	.	.	.
.	.	.	.	.	.	.	.	.	.	.	.	.	16E/JJ	.	16e/JJ	.	16e/JJ	.	.	.	.	.	.	.	.	.	.
.	.	.	.	.	.	.	.	.	4r	.	.	.	8G/L	.	8g/L	.	8g/L	.	.	4r	.	.	.	.	.	.	.
.	.	.	.	.	.	.	.	.	.	.	.	.	16E/L	.	16e/L	.	16e/L	.	.	.	.	.	.	.	.	.	.
.	.	.	.	.	.	.	.	.	.	.	.	.	16G/JJ	.	16g/JJ	.	16g/JJ	.	.	.	.	.	.	.	.	.	.
=13	=13	=13	=13	=13	=13	=13	=13	=13	=13	=13	=13	=13	=13	=13	=13	=13	=13	=13	=13	=13	=13	=13	=13	=13	=13	=13	=13
2ryy	.	2ryy	2ryy	2ryy	2ryy	2ryy	2ryy	2ryy	2r	.	2r	.	8c/L	.	8cc/L	.	8cc/L	.	2r	2r	.	2ryy	.	2ryy	2ryy	2ryy	.
.	.	.	.	.	.	.	.	.	.	.	.	.	16E/L	.	16e/L	.	16e/L	.	.	.	.	.	.	.	.	.	.
.	.	.	.	.	.	.	.	.	.	.	.	.	16G/JJ	.	16g/JJ	.	16g/JJ	.	.	.	.	.	.	.	.	.	.
.	.	.	.	.	.	.	.	.	.	.	.	.	8c/L	.	8cc/L	.	8cc/L	.	.	.	.	.	.	.	.	.	.
.	.	.	.	.	.	.	.	.	.	.	.	.	16G/L	.	16g/L	.	16g/L	.	.	.	.	.	.	.	.	.	.
.	.	.	.	.	.	.	.	.	.	.	.	.	16c/JJ	.	16cc/JJ	.	16cc/JJ	.	.	.	.	.	.	.	.	.	.
!!LO:PB:g=original
=14	=14	=14	=14	=14	=14	=14	=14	=14	=14	=14	=14	=14	=14	=14	=14	=14	=14	=14	=14	=14	=14	=14	=14	=14	=14	=14	=14
2ryy	.	2r	2r	2r	2r	2r	2r	2r	2r	.	2r	.	8e\L	.	8ee\L	.	8ee\L	.	2r	2r	.	2r	.	2r	2r	2r	.
.	.	.	.	.	.	.	.	.	.	.	.	.	16G\L	.	16g\L	.	16g\L	.	.	.	.	.	.	.	.	.	.
.	.	.	.	.	.	.	.	.	.	.	.	.	16c\JJ	.	16cc\JJ	.	16cc\JJ	.	.	.	.	.	.	.	.	.	.
.	.	.	.	.	.	.	.	.	.	.	.	.	8e\L	.	8ee\L	.	8ee\L	.	.	.	.	.	.	.	.	.	.
.	.	.	.	.	.	.	.	.	.	.	.	.	16c\L	.	16cc\L	.	16cc\L	.	.	.	.	.	.	.	.	.	.
.	.	.	.	.	.	.	.	.	.	.	.	.	16e\JJ	.	16ee\JJ	.	16ee\JJ	.	.	.	.	.	.	.	.	.	.
=15	=15	=15	=15	=15	=15	=15	=15	=15	=15	=15	=15	=15	=15	=15	=15	=15	=15	=15	=15	=15	=15	=15	=15	=15	=15	=15	=15
2ryy	.	2r;	2r;	2r;	2r;	2r;	2r;	2r;	2r;	.	2r;	.	8g\L	.	8gg\L	.	8gg\L	.	2r;	2r;	.	2r;	.	2r;	2r;	2r;	.
.	.	.	.	.	.	.	.	.	.	.	.	.	16e\L	.	16ee\L	.	16ee\L	.	.	.	.	.	.	.	.	.	.
.	.	.	.	.	.	.	.	.	.	.	.	.	16c\JJ	.	16cc\JJ	.	16cc\JJ	.	.	.	.	.	.	.	.	.	.
.	.	.	.	.	.	.	.	.	.	.	.	.	8G/	.	8g/	.	8g/	.	.	.	.	.	.	.	.	.	.
.	.	.	.	.	.	.	.	.	.	.	.	.	8r;	.	8r;	.	8r;	.	.	.	.	.	.	.	.	.	.
==	==	==	==	==	==	==	==	==	==	==	==	==	==	==	==	==	==	==	==	==	==	==	==	==	==	==	==
*-	*-	*-	*-	*-	*-	*-	*-	*-	*-	*-	*-	*-	*-	*-	*-	*-	*-	*-	*-	*-	*-	*-	*-	*-	*-	*-	*-
!!!system-decoration: {(s1,s2)}s3,s4,s5,s6{(s7,s8)}{(g1)}(s11){(s12,s13)}{(g2)}(s16){(s17,s18)}(s19)
!!!RDF**kern: < = below
!!!RDF**kern: > = above
!!!ENC: Marta Chmielewska
!!!END: 2021-06-17
!!!ENC: Krzysztof Stępień
!!!END: 2021-06-09
